X:1
T:Cor mio deh I
T:Cor mio deh I
T:Claudio Saracini
T:Source : Le secondo Musische per cantar e sonar---Venetia---A.Vincenti---1620. Editor : André Vierendeels (26/11/15).
T:Notes : Original clefs : C1, F4 Editorial accidentals above the staff Figures above the BC are notated in original print m 7 in S : quarter rest is missing in the original print Text by G.B.Guarini 
C:Claudio Saracini
%%score 1 2
L:1/8
Q:1/4=81
M:4/4
K:C
V:1 treble nm="Soprano" snm="S"
V:2 bass nm="BC" snm="BC"
V:1
 B8 | B8 | d6 e2 | A6 E2 | ^F4 G4 | ^G4 G4 | z2 BB d4- |"^-natural" d2 cB A4 | e6 BA | B8- | TB8 | %11
w: Cor|mio|deh _|non pian-|ge- *|* te,|ch'al- tro mal|_ io non pro-|vo'al- tro mar-|ti-||
 A8 | z ccc f4 | c6 _BA | _B8 |"^-natural" B6 B2 | c8 | ^c4 c4 | e6 BB | B6 ^c2 | d8 | ^d4 d4 | %22
w: re,|che ve- der voi|del mio lan-|guir,|_ lan-|gui-|* re,|dun- que non|vi do-|le-|* te,|
 ed ^c4 dc | TB8 | A8 :: z2 A4 EE | F4 F2 cc | ^c6 c2 | d4 d4 | e6 ^GG | ^G6 G2 | A8 | d6 cB | A8 | %34
w: se sa- nar mi vo-|le-|te.|Che quell' af-|fet- to, che pie-|ta chia-|ma- te|s'e dis- pie-|ta- to'à|voi|non è pie-|ta-|
 G8 :| %35
w: te.|
V:2
 G,8 | G,,8 | D,4 ^C,4- | C,8 | D,2 C,2 B,,2 A,,2 | ^G,,8 | ^G,4 ^F,4 | ^C,8- | C,4 ^G,3 ^F, | %9
 ^G,E,A,E, ^D,^C,D,B,, | E,8 | A,,8 | F,,8 |"^b""^b" C,4 G,,4 | _B,,4 A,,4 |"^-natural" G,,8 | %16
 C,4 B,,4 |"^#" A,,8 | E,8- | E,4 ^C,4 | G,,4 A,,4 |"^#" B,,8 | ^C,4 ^F,,4 | E,8 | A,,8 :: A,,8 | %26
 F,,8 |"^#" A,,8 | ^F,,8 | ^C,4 E,4 | E,4 D,4 | ^C,8 | B,,4 D,4 | D,,8 | G,,8 :| %35

